X:163
T: Der grausame Bruder
N: Q0068H
O: Mitteleuropa, Deutschland (DDR) , Sachsen, Genthin
R: Ballade, Schwangerschaft, Moral, Mord
M: 3/4
L: 1/4
K: G
D | GGD | GAB | AFA | FD
G | EFG | DDB, | EFG | Dz
D | GGD | GAB | DDD | Gz

@@@ Tune index: 1039
